X:1
T:Title
%%score { 1 | ( 2 3 ) }
L:1/8
Q:1/4=100
M:6/8
K:Db
V:1 treble nm="Grand Piano"
V:2 bass 
V:3 bass 
V:1
 [Fd]2 [Fe] [Gd]2 [GB] | [FA]3 .F3 | D2 D ED[A,CE] | [A,DF]6 | [Fd]2 [Fe] [Gd]2 [GB] | %5
w: I.~Allan~Sankey * * *|||||
 [FA]3 [DF]3 | [DF]3 E3 | E6 | [EG]2 [DF] [CE][DF][EG] | [DF]3 .[FA]3 | B2 B cBc | [Fd]6 | %12
w: |||||||
 e2 d d>cB | d3 A3 | AG[=G,DF] .[A,CF]2[K:bass] [_G,CE] | [F,D]6 |] %16
w: ||||
V:2
 [D,A,]2 [D,=A,] [D,B,]2 [D,C] | [D,D]3 .[D,A,D]3 | z3 .C3 | D,6 | [D,A,]2 [D,=A,] [D,B,]2 [D,C] | %5
 [D,D]3 [D,A,]3 | [B,,=G,]3 [E,G,D]3 | [A,C]6 | [A,,A,]2 [A,,A,] [A,,A,]2 [A,,A,] | %9
 [D,A,]3 .[D,D]3 | [G,DG]2 [G,B,G] [F,=A,E]2 [F,A,E] | [B,,B,]6 | z3 .[=G,_F]3 | %13
 [A,DF]3[K:bass] [F,_CD]3 | [E,B,D]2 E, z =G,A,, | D,6 |] %16
V:3
 x6 | x6 | [F,A,]2 [F,A,] A,-[A,B,]A,, | x6 | x6 | x6 | x6 | x6 | x6 | x6 | x6 | x6 | %12
 [G,B,G]2 [G,B,G] B,>C[=G,D_F] | x3[K:bass] x3 | z3 .A,,3 | x6 |] %16

